coreui/free/cil-airplane-mode-off.svg

<svg viewBox="0 0 512 512" xmlns="http://www.w3.org/2000/svg"><g><path d="M224 113.88v0c-.03-21.8 9.65-42.48 26.42-56.42v0c3.22-2.7 7.92-2.7 11.15 0v0c16.76 13.93 26.45 34.61 26.42 56.41v92l165.914 82.957 -2.68 13.35 -86.94-11.34 37.11 37.11 75.33 9.82 13.32-66.65L319.95 186.07v-72.23 0c.03-31.31-13.87-61-37.94-81v-.001c-15.1-12.59-37.03-12.59-52.13 0h0c-24.08 20-37.98 49.69-37.94 81v4.67l32 32Z"/><path d="M38.51 16H16.022v22.655l156.971 156.95L21.9 271.145l13.32 66.64 157.189-20.5 7.73 81.22 -72.167 30.92v66.55h256v-66.55l-72.17-30.93 5.57-58.51 155.99 155.986h22.6v-22.55Zm313.483 434.55V464h-192v-13.45l74.238-31.82 -10.238-107.493v-30.34L60.75 302.18l-2.68-13.36 138.762-69.381 91.15 91.14v.62L277.74 418.69Z"/></g></svg>

<svg xmlns="http://www.w3.org/2000/svg" viewBox="0 0 512 512">
  <path fill="var(--ci-primary-color, currentColor)" d="M224,113.889a73.235,73.235,0,0,1,26.423-56.413,8.707,8.707,0,0,1,11.154,0A73.235,73.235,0,0,1,288,113.889v92l165.914,82.957L451.243,302.2l-86.936-11.339,37.114,37.112,75.336,9.827,13.329-66.646L320,186.111V113.889a105.155,105.155,0,0,0-37.937-81,40.705,40.705,0,0,0-52.126,0,105.155,105.155,0,0,0-37.937,81v4.675l32,32Z" class="ci-primary"/>
  <path fill="var(--ci-primary-color, currentColor)" d="M38.517,16H16.029V38.655L173,195.613,21.914,271.154,35.243,337.8l157.189-20.5,7.735,81.224L128,429.45V496H384V429.45l-72.167-30.929,5.571-58.507L473.4,496H496V473.458ZM352,450.55V464H160V450.55l74.238-31.817L224,311.24V280.908L60.757,302.2l-2.671-13.354,138.762-69.381L288,310.611v.629L277.762,418.733Z" class="ci-primary"/>
</svg>
